X:1
T:Amour et moy
T:Amour et moy
T:Thomas Crecquillon
T:Source : Neufiesme Livre de Chansons à 4 parties---Paris---N.du Chemin---1551. Editor : André Vierendeels (20/12/14).
C:Thomas Crecquillon
%%score [ 1 [ 2 3 ] 4 ]
L:1/8
Q:1/4=96
M:2/2
K:F
V:1 treble nm="Superius" snm="S"
V:2 treble-8 nm="Tenor 1" snm="T 1"
V:3 treble-8 nm="Tenor 2" snm="T 2"
V:4 bass nm="Bassus" snm="B"
V:1
 z4 D4- | D4 F4 | E4 D4- | D4 z2 D2 | DE FG A2 B2 | c2 d2 c2 B2- | B2 AG F2 F2 | G6 G2 | %8
w: A-|* mour|et moy|_ a-|vons _ _ _ _ faict|ac- coin- tan- *|* * * ce, en|pour- chas-|
 A2 A2 d2 d2 | c3 B AG B2- | BA G4 F2 | G4 z4 | z2 G2 G2 F2 | G2 B2 B2 A2 |"^b" G3 F E4 | %15
w: sant la mien- ne'af-|fec- * * * ti-||on,|et bon es-|poir me don- ne'in-|ten- * ti-|
 D2 F4 G2 | A4 D2 B2- | B2 A2 B2 AG | F2 F2 G2 A2 | DE FG AB c2- | c2 B4 A2 | B2 z G D2 G2 | %22
w: on de pour-|chas- * *|* * ser, et _|vi- vr'en es- pe-|ran- * * * * * *||ce, pour par- ve-|
 F2 D2 F3 G | A6 G2 | A4 z2 A2 | A2 A2 D2 A2 | B6 B2 | A2 G2 A4 | A2 A4 B2- | BA F2 G2 A2- | %30
w: nir à con- so-|la- ti-|on, si|ie voy cler, mes|yeulx sont|sans doub- tan-|ce, sans doub-|* * * tan- *|
"^#" AG G4 F2 | G2 G2 B2 B2 | A6 G2 | F2 E3 D D2- | D2 C2 D2 A2 | B2 B2 A4- | A2 G2 F2 E2- | %37
w: |ce, et de- meu-|rons en|paix et _ u-|* ni- on, en|paix et u-||
 ED D4 C2 | D4 D4- | D4 F4 | E4 D4- | D8 |] %42
w: * * * ni-|on, A-|* mour|et moy.|_|
V:2
 A4 A2 B2 | A2 A2 FG AB | c4 A4 | B8 | A2 d2 e2 f2 | f2 f3 e d2- | d2 c2 d4 | z2 d2 e2 e2 | %8
w: A- mour et|moy, A- mour _ _ _|_ et|moy|a- vons faict ac-|coin- tan- * *|* * ce,|en pour- chas-|
 c2 f2 g2 f2- | f2 e2 fe dc | B2 c2 d4- | d8 | z2 d2 d2 d2 | B3 c d2 d2 | B2 G2 c2 c2 | F4 z2 d2 | %16
w: sant la mien- ne'af-|* fec- * * * *|* ti- on,|_|et bon es-|poir me don- ne'in-|ten- * * ti-|on de|
 e2 f2 B2 d2- | dc f2 e4 | d2 d2 c4 | B4 A2 f2- | fd e2 f4 | d4 z4 | d4 A2 d2 | c2 f2 e2 d2 | %24
w: pour- chas- * *||ser, et vi-|vr'en es- pe-|* * * ran-|ce,|pour par- ve-|nir à con- so-|
 e2 e2 f4 | z2 f2 f2 f2 | B2 f2 g2 f2 | e2 d2 e2 f2 | e4 d4 | z2 d2 e2 f2 | B2 c2 d4- | %31
w: la- ti- on,|si ie voy|cler, mes yeulx sont|sans doub- tan- *|* ce,|sans doub- tan-|* * ce,|
 d2 d2 g2 g2 | f6 e2 | d2 c2 B2 G2 | A4 F2 f2 | g2 g2 f4- | f2 e2 d2 c2 | B2 G2 A4 | z2 A2 A2 B2 | %39
w: _ et de- meu-|rons en|paix et u- *|ni- on, en|paix et u-||* ni- on,|et- u- ni-|
 A2 A2 FG AB | c4 A4 |"^-natural" B8 |] %42
w: on, A- mour _ _ _|_ et|moy.|
V:3
 D4 F2 G2 | FE FG A2 F2 | A2 G4 F2 | G4 D2 DE | FG AB c2 d2 | c2 B2 A2 B2 | G4 A2 A2 | B4 c4 | %8
w: A- mour et|_ _ _ _ _ _||moy a- vons _|_ _ _ _ _ faict|ac- coin- tan- *|* ce, en|pour- chas-|
 A2 F2 B2 B2 | A3 G FE F2 | G4 A4 | G2 B2 B2 A2 | B4 A4 | G6 F2 | G2 B4 A2 | B4 z2 B2 | c2 d4 G2 | %17
w: sant la mien- ne'af-|fec- * * * *|* ti-|on, et bon es-|poir me|don- ne'in-|ten- * ti-|on de|pour- chas- ser,|
 z2 d4 c2 | A2 B4 A2 | B2 d2 c2 A2 | B4 c4 | B6 B2 | A2 B2 c2 F2 | FG AB c2 d2 |"^#" d2 c2 d4 | %25
w: et vi-|vr'en es- pe-|ran- * * *||ce, pour|par- ve- nir à|con- * * * * so-|la- ti- on,|
 z2 d2 d2 d2 | G2 d2 e2 d2 | c2 B2 c2 d2- | d2 c2 d2 B2 | (3:2:2d4 c2 B2 c2 | G4 A4 | G4 z2 d2 | %32
w: si ie voy|cler, mes yeulx sont|sans doub- tan- *|* * ce, sans|doub- * tan- *||ce, et|
 d2 d2 c3 B | A3 G F2 ED | E4 D4 | z2 d2 d2 d2 | c3 B A3 G | F2 ED E4 | D2 D2 F2 G2 | FE FG A2 F2 | %40
w: de- meu- rons en|paix et u- * *|ni- on,|en paix et|u- * * *|* * * ni-|on, et u- *|ni- * * * on, A-|
"^#" A2 G4 F2 | G8 |] %42
w: mour et _|moy.|
V:4
 z8 | D,8 | C,4 D,4 | G,,2 G,,2 G,,A,, B,,C, | D,2 D,2 C,2 B,,2 | F,2 B,,2 F,2 G,2 | %6
w: |A-|mour et|moy a- vons _ _ _|_ faict ac- coin-|tan- * * *|
"^#" E,4 D,2 D,2 | G,2 G,2 C,2 C,2 | F,E, D,C, B,,2 B,,2 | C,4 D,2 B,,2 |"^b" E,4 D,4 | %11
w: * ce, en|pour- chas- sant la|mien- * * * * ne'af-|fec- * *|ti- on|
 z2 G,2 G,2 F,2 | G,4 D,4 |"^b" E,3 D, B,,2 D,2 |"^b" E,3 D, C,4 | B,,8 | z8 | F,4 G,2 A,2 | %18
w: et bon es-|poir me|don- * * ne'in-|ten- * ti-|on,||de pour- chas-|
 D,2 D,2 E,2 F,2 | G,2 D,E, F,G, A,F, | G,4 F,4 | G,4 z2 G,2 | D,2 G,2 F,2 D,2 | F,3 G, A,2 B,2 | %24
w: ser, et vi- vr'en|es- pe- * * * * *|* ran-|ce, pour|par- ve- nir à|con- so- la- *|
 A,4 D,4- | D,8 | z8 | z4 A,4 | A,2 A,2 D,2 G,2 | B,3 A, G,2 F,2 |"^b" E,4 D,4 | z2 G,2 G,2 G,2 | %32
w: ti- on,|_||si|ie voy cler, mes|yeulx sont sans doub-|tan- ce,|et de- meu-|
 D,2 D,2 F,2 C,2 |"^#" D,2 A,,2 B,,4 | A,,4 z2 D,2 | G,2 G,2 D,2 D,2 | F,2 C,2 D,2 A,,2 | %37
w: rons en paix, et|u- * ni-|on, en|paix et u- ni-|on, et u- *|
 B,,4 A,,4 | D,4 z4 | D,8 | C,4 D,4 | G,,8 |] %42
w: * ni-|on,|A-|mour et|moy.|

